svg/OSM-icons/amenity #7bffff °373737 !label=enamenities,deEinrichtungen/12449;amenity=advertising;!#advertising=window;[advertising];!label=enadvertising window,deSchau- fenster.svg

<svg xmlns="http://www.w3.org/2000/svg" xmlns:xlink="http://www.w3.org/1999/xlink" viewBox="0 0 580 580" enable-background="new 0 0 580 580"><defs><path id="1" d="m0 0h580v580h-580z"/><clipPath id="0"><use xlink:href="#1"/></clipPath></defs><path clip-path="url(#0)" fill="#111" d="m66.28 1.768c-41.34 0-64.57 21.371-64.57 65.04v450.12c0 40.845 20.894 62.23 62.19 62.23h452.02c41.31 0 62.23-20.316 62.23-62.23v-450.12c0-42.601-20.924-65.04-63.52-65.04-.003 0-448.49-.143-448.35 0"/><path clip-path="url(#0)" fill="#eee" d="m515.92 580.86h-452.02c-20.964 0-37.04-5.484-47.792-16.301-10.686-10.753-16.1-26.78-16.1-47.632v-450.12c0-43.662 22.917-66.74 66.28-66.74v.028c.519-.039 1.239-.042 2.269-.045 1.493-.005 3.699-.009 6.553-.013 5.706-.008 14-.015 24.376-.02 103.44-.048 413.25.049 415.15.05 21.565 0 38.04 5.741 48.97 17.06 10.792 11.179 16.265 27.893 16.265 49.677v450.12c0 42.42-21.511 63.933-63.934 63.933m-448.48-577.4l-.005.012h-1.157c-20.36 0-36.03 5.267-46.591 15.654-10.8 10.628-16.276 26.669-16.276 47.678v450.12c0 40.16 20.351 60.52 60.49 60.52h452.02c40.728 0 60.52-19.798 60.52-60.52v-450.12c0-42.02-20.799-63.33-61.818-63.33-1.523 0-199.84-.063-332.18-.063-84.03 0-109.77.026-115.01.051"/><g clip-path="url(#0)"><path fill="#e0dedf" d="m80.1 150.47h420.32v277.67h-420.32z"/><path fill="#9b9b9b" d="m170.23 217.23h238.19v147.2h-238.19z"/><g fill="#111"><path d="m410.38 367.44h-244.19v-153.2h244.19v153.2m-238.19-6h232.19v-141.2h-232.19v141.2"/><path transform="matrix(.8093.5874-.5874.8093 115.08-26.01)" d="m9.133 161.25h176.93v6h-176.93z"/><path transform="matrix(.5817.8134-.8134.5817 338-303.66)" d="m461.26 106.85h6v139.94h-6z"/><path transform="matrix(.8255.5644-.5644.8255 319.54-200.52)" d="m389.93 413.55h188.31v6h-188.31z"/><path transform="matrix(.5784.8157-.8157.5784 378.59 88.14)" d="m101.02 329.21h6v162.3h-6z"/></g><g fill="#fff"><path d="m163.4 230.34c0 0 15.676-14.302 40.04-30.19 24.367-15.886 38.34-20.744 38.34-20.744s-14.05 9.266-37 23.968c-22.949 14.703-41.39 26.964-41.39 26.964"/><path d="m114.39 291.3c0 0 36.601-34.451 93.36-72.855s89.23-50.28 89.23-50.28-32.739 22.397-86.19 57.95c-53.45 35.55-96.41 65.19-96.41 65.19"/><path d="m118.22 369.09c0 0 52.91-53.707 138.01-115.39 85.1-61.688 135.83-82.47 135.83-82.47s-49.03 35.936-129.29 93.14c-80.26 57.21-144.54 104.71-144.54 104.71"/><path d="m271.62 413.27c0 0 26.313-25.25 67.06-53.46 40.748-28.21 64.02-36.993 64.02-36.993s-23.503 16.452-61.873 42.571c-38.37 26.12-69.21 47.885-69.21 47.885"/></g></g></svg>

<?xml version="1.0" encoding="utf-8"?>
<!-- Generator: Adobe Illustrator 16.0.0, SVG Export Plug-In . SVG Version: 6.00 Build 0)  -->
<!DOCTYPE svg PUBLIC "-//W3C//DTD SVG 1.1//EN" "http://www.w3.org/Graphics/SVG/1.1/DTD/svg11.dtd">
<svg version="1.1" id="Ebene_1" xmlns="http://www.w3.org/2000/svg" xmlns:xlink="http://www.w3.org/1999/xlink" x="0px" y="0px"
	 width="580px" height="580px" viewBox="0 0 580 580" enable-background="new 0 0 580 580" xml:space="preserve">
<g>
	<defs>
		<rect id="SVGID_1_" width="580" height="580"/>
	</defs>
	<clipPath id="SVGID_2_">
		<use xlink:href="#SVGID_1_"  overflow="visible"/>
	</clipPath>
	<path clip-path="url(#SVGID_2_)" fill="#111111" d="M66.275,1.768c-41.335,0-64.571,21.371-64.571,65.036v450.123
		c0,40.845,20.894,62.229,62.192,62.229H515.92c41.307,0,62.229-20.316,62.229-62.229V66.804c0-42.601-20.924-65.036-63.522-65.036
		C514.624,1.768,66.133,1.625,66.275,1.768"/>
	<path clip-path="url(#SVGID_2_)" fill="#EEEEEE" d="M515.92,580.86H63.896c-20.964,0-37.043-5.484-47.792-16.301
		C5.418,553.806,0,537.779,0,516.927V66.804c0-43.662,22.917-66.74,66.275-66.74v0.028c0.519-0.039,1.239-0.042,2.269-0.045
		c1.493-0.005,3.699-0.009,6.553-0.013c5.706-0.008,14.004-0.015,24.376-0.02c103.438-0.048,413.251,0.049,415.146,0.05
		c21.565,0,38.039,5.741,48.97,17.063c10.792,11.179,16.265,27.893,16.265,49.677v450.123
		C579.854,559.35,558.343,580.86,515.92,580.86z M67.437,3.46l-0.005,0.012h-1.157c-20.36,0-36.035,5.267-46.591,15.654
		C8.884,29.754,3.408,45.795,3.408,66.804v450.123c0,40.162,20.351,60.525,60.488,60.525H515.92
		c40.728,0,60.525-19.798,60.525-60.525V66.804c0-42.024-20.799-63.332-61.818-63.332c-1.523,0-199.84-0.063-332.176-0.063
		C98.422,3.409,72.676,3.435,67.437,3.46z"/>
	<g clip-path="url(#SVGID_2_)">
		<rect x="80.102" y="150.469" fill="#E0DEDF" width="420.32" height="277.666"/>
		<rect x="170.232" y="217.233" fill="#9B9B9B" width="238.186" height="147.205"/>
		<path fill="#111111" d="M410.377,367.438H166.191V214.233h244.186V367.438z M172.191,361.438h232.186V220.233H172.191V361.438z"/>
		
			<rect x="9.133" y="161.251" transform="matrix(0.8093 0.5874 -0.5874 0.8093 115.0822 -26.0054)" fill="#111111" width="176.926" height="6.001"/>
		
			<rect x="461.259" y="106.853" transform="matrix(0.5817 0.8134 -0.8134 0.5817 338.0026 -303.6564)" fill="#111111" width="6" height="139.944"/>
		
			<rect x="389.927" y="413.553" transform="matrix(0.8255 0.5644 -0.5644 0.8255 319.5444 -200.5208)" fill="#111111" width="188.313" height="6"/>
		
			<rect x="101.019" y="329.207" transform="matrix(0.5784 0.8157 -0.8157 0.5784 378.5905 88.1406)" fill="#111111" width="6" height="162.296"/>
		<path fill="#FFFFFF" d="M163.403,230.341c0,0,15.676-14.302,40.043-30.188c24.367-15.886,38.344-20.744,38.344-20.744
			s-14.054,9.266-37.001,23.968C181.84,218.08,163.403,230.341,163.403,230.341"/>
		<path fill="#FFFFFF" d="M114.394,291.301c0,0,36.601-34.451,93.364-72.855s89.235-50.281,89.235-50.281
			s-32.739,22.397-86.191,57.95C157.348,261.665,114.394,291.301,114.394,291.301"/>
		<path fill="#FFFFFF" d="M118.224,369.09c0,0,52.91-53.707,138.01-115.394c85.101-61.688,135.828-82.465,135.828-82.465
			s-49.033,35.936-129.294,93.144C182.505,321.583,118.224,369.09,118.224,369.09"/>
		<path fill="#FFFFFF" d="M271.623,413.271c0,0,26.313-25.251,67.061-53.463c40.748-28.211,64.019-36.993,64.019-36.993
			s-23.503,16.452-61.873,42.571C302.461,391.505,271.623,413.271,271.623,413.271"/>
	</g>
</g>
</svg>
